X: 6240
T: Carol Gibson's Patter
R: jig
M: 6/8
K: Dmajor
A|d2d cAA|FGA GFD|d2d cAA|fga gfe|
d2d cAA|FGA GFD|dad gdf|edc d3:|
|:EAB cBA|E2d cBA|EAB cBA|DEF GFE|
EAB cBA|E2d cBA|AaA gAf|edc d3:|

